X: 46
T: No_51_Midnight_Song_of_Peyote_Ceremony.krn
N: Derived from No_51_Midnight_Song_of_Peyote_Ceremony.krn
%%abc-version 2.0
%%abcx-abcm2ps-target-version 5.9.1 (29 Sep 2008)
%%abc-creator hum2abc beta
%%abcx-conversion-date 2019/03/15 08:27:55
%%humdrum-veritas 3549400559
%%humdrum-veritas-data 4209449797
%%linebreak <none>
%%barnumbers 0
L: 1/8
M: 2/4
K: Db clef=bass
[K:clef=bass][M:2/4]DD DD | 
[M:3/4]D2D2D2 | 
[M:2/4]A,A,A,2 | 
A,2A,A, | 
A, z A,A, | 
A,2(B,A,) | 
[M:3/4]A,A, A, zz2 | 
[M:2/4]A,2B,A, | 
(A,E,) A,A, | 
A,2A,2 | 
[M:3/4]D,2D,D, D, z | 
D,2D,2D,2 | 
[M:2/4]D,2z2 | 
(CB,) (A,=G,) | 
A,2A,A, | 
(A,E,/) z/ A,A, | 
A,2B,A, | 
[M:3/4]A,A,A,2z2 | 
[M:2/4]A,2A,A, | 
(A,E,/) z/ A,A, | 
A,A,A,2 | 
D,2D,D, | 
D,D, D, z | 
D,2D,D, | 
D, z D,D, | 
D, zD,2 | 
A,,2A,,2 | 
A,,2A,,A,, | 
A,, z A,,A,, | 
A,,A,,A,,2 | 
[M:3/4]A,,2A,,2z2 | 
[M:2/4]A,,2A,,A,, | 
A,, z A,,A,, | 
A,,2B,,A,, | 
A,,2A,,A,, | 
A,,z3 |]  



